!!!COM: Borsaro, Arcangelo
!!!CDT:
!!!PTL: Il primo libro delle villanelle a tre voci
!!!PPP: Venice
!!!PPR: Amadino
!!!PDT: 1587
!!!PUB-format:
!!!RISM: B 3774
!!!rime: 297
!!!OTL: Se 'l vostro volto è d'un'aria gentile
!!!AGN: Madrigal
!!!SCT: Trm0297c
!!!SCA: Trm0297c
!!!original-voices: 3
!!!extant-voices: 1
!!!complete: N
!!!final: C
**kern	**text
*part1	*part1
*staff1	*staff1
*I"Basso	*
*I'B	*
*oclefC3	*
*clefGv2	*
*k[b-]	*
*F:	*
*omet(C)	*
*M2/2	*
=1	=1
1c	Se’l
=2	=2
2g	vo-
2e	-stro
=3	=3
2a	vol-
4d	-to_è
[4g	d'u-
=4	=4
4g]	.
4e	-n'a-
4f	-ria
4g	gen-
=5	=5
2c	-ti-
2c	-le
=6:|!|:	=6:|!|:
4r	.
4c	E_i
4.c	bei
8B-y	vo-
=7	=7
4.A	-str'oc-
8G	-chi
4F	son
4F	due
=8	=8
2B-y	fiam-
2A	-m'ar-
=9	=9
1d	-den-
=10	=10
4c	-ti,
2f	son
4f	due
=11	=11
2B-y	fiam-
2B-y	-m'ar-
=12	=12
2c	-den-
2Gl	-ti,
=13||	=13||
2r	.
2G	In
=14	=14
2A	voi
2BnX	dun-
=15	=15
2c	-que
2A	ci
=16	=16
4G	so-
4A	.
4B-y	.
4c	.
=17	=17
2d	.
2d	-no
=18	=18
2.e	due_e-
4f	-le-
=19	=19
1g	-men-
=20	=20
1cl	-ti.
=:|!	=:|!
*-	*-
!!!RDF**kern: i = editorial accidental
!!!RDF**kern: l = terminal long
!!!ENC: Emiliano Ricciardi
!!!END: 2019/01/30
!!!EED: Schleuse, Paul
!!!EEV: 2019/01/30
!!!YEC: Copyright 2018 Emiliano Ricciardi, All Rights Reserved
!!!ONB: Translated from MusicXML on 2019/01/30 and edited by Craig Stuart Sapp
!!@@BEGIN:	VERSEDATA
!!@SOLERTI:	297
!!@CATALOGNUM:	Trm0297
!!@LAST_MODIFIED: 2020/07/12
!!@ATTRIBUTION:	not secure
!!@TITLE:		Se 'l vostro volto è d'un'aria gentile
!!@GENRE:		canzonetta
!!@MANUSRC:	none
!!@PRINTSRC:	27, 70, 141, 166
!!@@BEGIN:	VERSES
!!@ABOUTIT:
!!@ABOUTEN:
!!@EDITOR:	Solerti, Angelo
!!@EDITION_TITLE: Le Rime di Torquato Tasso
!!@EDITION_LOC:	Bologna
!!@EDITION_PUB:	Romagnoli-Dall’Acqua
!!@EDITION_DATE:  1898-1902
!!@EDITION_VOL:	2
!!@EDITION_PAGE:  362
!!@TRANSLATOR:	Emiliano Ricciardi and Amyrose McCue Gill
!!@VERSE:
!!	Se 'l vostro volto è d'un'aria gentile
!!	E i bei vostri occhi son due fiamme ardenti,
!!	In voi dunque ci sono due elementi.
!!@VERSE:
!!	E se questi occhi or sono fonti e fiumi
!!	E cenere il mio cor, dunque diremo
!!	Che voi ed io quattro elementi semo.
!!@VERSE:
!!	E se voi sete un'aria e dolce foco,
!!	Acqua amara son io, cenere e terra,
!!	Perché fra noi ci nasce tanta guerra?
!!@VERSE:
!!	Ma se volesse il fato e la mia sorte
!!	Che tutti quattro fossimo una cosa,
!!	Oh che vita felice e glorïosa!
!!@TVERSE:
!!	If your face is as a gentle breeze
!!	And your beautiful eyes are two burning flames,
!!	Then in you there are two elements.
!!@TVERSE:
!!	And if these eyes are now fountains and rivers
!!	And my heart [is] ash, then we will say
!!	That you and I are four elements.
!!@TVERSE:
!!	And if you are a breeze and a sweet fire, [and]
!!	I am bitter water, ash, and earth,
!!	Why between us does so much war break out?
!!@TVERSE:
!!	But if fate and my destiny wished
!!	For all four of us to be one thing,
!!	Oh, what a happy and glorious life!
!!@@END:		VERSES
!!@OTHER_CRIT_ED:   None
!!@ATTRIBUTION_ABOUT:	Not secure
!!		<br>
!!		This poem is attributed to Tasso only in a literary print and reprints thereof that were not supervised by the poet (see Literary Sources).
!!@DATING:	Before 1579
!!		<br>
!!		The earliest appearance of this poem is in a musical setting by Orazio Vecchi originally published most likley in 1579 and reprinted in 1580--the princeps edition has not survived (see Musical Settings).
!!@DEDICATEE:
!!@COMMENTARY:
!!@@END:		VERSEDATA
!!@@BEGIN:	SETTING
!!@CATALOGNUM:	Trm0297c
!!@RIMETITLE:	Se 'l vostro volto è d'un'aria gentile
!!@SOLERTI:	297
!!@COMPOSER:	Borsaro, Arcangelo
!!@PRINCEPSTITLE:	Il primo libro delle villanelle a tre voci
!!@PRINCEPSLOC:	Venetia
!!@NORMLOC:	Venice
!!@NORMPUB:	Amadino
!!@NORMPUBSHORT:	Amadino
!!@PRINCEPSPUB:	Amadino
!!@PRINCEPSYEAR:	1587
!!@PRINCEPSRISM:	B 3774
!!@REPRINTS:	
!!@OVOICES:	3
!!@EXTANTVOICES:	1
!!@PARTBOOKS:	
!!@EXTPARTBOOKS:	
!!@OCLEFS:	C3
!!@OMENSURATION:	C
!!@OKEYSIG:	b-
!!@FINAL:	C
!!@TIMPEDITOR:	Schleuse, Paul
!!@NOTE:		
!!@@END:		SETTING
